albertroad.htmlalbertroad.htmlalbertroad.htmlalbertroad.htmlalbertroad.htmlalbertroad.htmlalbertroad.htmlalbertroad.htmlalbertroad.htmlFrom <I>Brendan Mulvihill &amp; Donna Long: The Steeplechase</I>
albertroad.htmlalbertroad.html<PRE>T:Dawn, The
T:Dawn, The
M:4/4
L:1/8
R:reel
D:Brendan Mulvihill and Donna Long: The Steeplechase
K:A
Z:Devin McCabe
A,2CE D2FD|E2GB ABcA|B~E3 c~E3|BdcB AFEC|
!A,2CE D2FD|E2GB ABcA|defg agaf|1ecBc AFEC:|2ecBc A2ce|
!|:a2ga fece|faba geef|gebe gebe|ac'ea c'eac'|
!abae fece|defg agaf|acae fedc|1BEGB A2ce:|2BEGB AFEC||
albertroad.htmlalbertroad.htmlalbertroad.htmlalbertroad.htmlalbertroad.htmlalbertroad.htmlalbertroad.html